business-theorema/img/erp-ellipse.svg

<svg width="699" height="674" viewBox="0 0 699 674" fill="none" xmlns="http://www.w3.org/2000/svg">
<circle cx="334.373" cy="352.234" r="320.68" stroke="#3F4245" stroke-opacity="0.3"/>
<path d="M524.259 93.8344C579.319 134.247 621.974 192.466 642.478 263.13C662.982 333.794 658.114 405.803 633.236 469.411" stroke="#0085FF" stroke-width="2"/>
<path d="M347.798 32.3619C338.288 31.8598 328.757 31.8538 319.247 32.3441" stroke="#F0F0F0" stroke-width="4"/>
<path d="M360.074 32.5602C350.557 32.2176 314.48 31.8524 304.979 32.502" stroke="#F0F0F0" stroke-width="9"/>
<path d="M648.346 282.603C645.796 273.428 635.236 238.928 631.744 230.068" stroke="#F0F0F0" stroke-width="9"/>
<path d="M506.679 623.517C514.443 618.003 543.308 596.357 550.455 590.065" stroke="#F0F0F0" stroke-width="9"/>
<circle cx="333.532" cy="32.3165" r="14.233" stroke="#BBBCBD"/>
<path d="M37.7936 230.442C34.6341 239.425 23.5477 273.76 21.3402 283.023" stroke="#F0F0F0" stroke-width="4"/>
<circle cx="28.5265" cy="256.696" r="14.233" stroke="#BBBCBD"/>
<path d="M518.707 616.332C525.913 610.106 532.79 603.508 539.309 596.567" stroke="#F0F0F0" stroke-width="4"/>
<path d="M117.836 588.379C125.142 594.487 153.411 616.905 161.313 622.22" stroke="#F0F0F0" stroke-width="8"/>
<circle cx="529.017" cy="606.412" r="14.233" stroke="#BBBCBD"/>
<circle cx="138.467" cy="606.412" r="14.233" stroke="#BBBCBD"/>
<path d="M644.168 270.371C641.895 261.124 639.141 251.999 635.918 243.039" stroke="#F0F0F0" stroke-width="4"/>
<path d="M640 243.157C647.732 243.157 654 249.425 654 257.157C654 264.889 647.732 271.157 640 271.157C632.268 271.157 626 264.889 626 257.157C626 249.425 632.268 243.157 640 243.157Z" stroke="#0085FF" stroke-width="2"/>
<circle cx="639.998" cy="257.155" r="7.99793" fill="#0085FF"/>
</svg>

<svg width="699" height="674" fill="none" xmlns="http://www.w3.org/2000/svg"><circle cx="334.373" cy="352.234" r="320.68" stroke="#3F4245" stroke-opacity=".3"/><path d="M524.259 93.834c55.06 40.413 97.715 98.632 118.219 169.296 20.504 70.664 15.636 142.673-9.242 206.281" stroke="#0085FF" stroke-width="2"/><path d="M347.798 32.362a273.987 273.987 0 00-28.551-.018" stroke="#F0F0F0" stroke-width="4"/><path d="M360.074 32.56c-9.517-.342-45.594-.708-55.095-.058m343.367 250.101c-2.55-9.175-13.11-43.675-16.602-52.535M506.679 623.517c7.764-5.514 36.629-27.16 43.776-33.452" stroke="#F0F0F0" stroke-width="9"/><circle cx="333.532" cy="32.316" r="14.233" stroke="#BBBCBD"/><path d="M37.794 230.442c-3.16 8.983-14.246 43.318-16.454 52.581" stroke="#F0F0F0" stroke-width="4"/><circle cx="28.526" cy="256.696" r="14.233" stroke="#BBBCBD"/><path d="M518.707 616.332a274.197 274.197 0 0020.602-19.765" stroke="#F0F0F0" stroke-width="4"/><path d="M117.836 588.379c7.306 6.108 35.575 28.526 43.477 33.841" stroke="#F0F0F0" stroke-width="8"/><circle cx="529.017" cy="606.412" r="14.233" stroke="#BBBCBD"/><circle cx="138.467" cy="606.412" r="14.233" stroke="#BBBCBD"/><path d="M644.168 270.371a273.965 273.965 0 00-8.25-27.332" stroke="#F0F0F0" stroke-width="4"/><path d="M640 243.157c7.732 0 14 6.268 14 14s-6.268 14-14 14-14-6.268-14-14 6.268-14 14-14z" stroke="#0085FF" stroke-width="2"/><circle cx="639.998" cy="257.155" r="7.998" fill="#0085FF"/></svg>
